public/images/poses-sm/Cat.svg

<svg width="800" height="900" fill="none" xmlns="http://www.w3.org/2000/svg"><path d="M553.318 277.599c-26.899-8.026-55.565-6.512-82.821-1.174-50.247 9.834-119.594 32.405-142.95 83.395-11.86 25.886-13.908 55.6-13.072 83.695.733 24.762 6.467 88.442 10.194 108.181.285 1.515-.907 2.892-2.444 2.784-9.648-.704-37.451 2.732-41.014 3.199-14.615 1.925-29.048 5.007-43.321 8.657-35.862 9.166-74.394 31.594-110.95 14.902-8.941-4.083-18.367 1.781-26.126 5.746-27.477 14.032-77.175 2.267-92.587 34.872-.733 1.555.397 3.36 2.113 3.366 23.892.137 80.941 1.294 116.327-6.555.226-.052.443-.069.675-.046 67.582 5.832 187.26 19.408 249.305-8.547a2.42 2.42 0 0 0 1.169-1.129c16.24-32.259 23.606-68.047 27.504-103.717 2.952-27.003 2.919-54.252 5.807-81.222 2.635-24.628 13.782-49.464 38.717-58.282 14.061-4.973 28.762-8.334 42.211-6.967 12.381 1.255 18.716 11.72 28.639 15.346 8.21 3 15.301 3.478 22.501 2.277 14.864-2.489 25.587-5.253 39.988-3.524 2.332.281 3.296 2.993 4.893 2.956 18.239-.399 15.498 3.662 26.843-29.081 12.122-34.997-34.596-61.073-61.601-69.132Z" fill="#fff" stroke="#000" stroke-width="5" stroke-miterlimit="10"/><path d="M553.318 277.599c-26.899-8.026-55.565-6.512-82.821-1.174-50.247 9.834-119.594 32.405-142.95 83.395-11.86 25.886-13.908 55.6-13.072 83.695.733 24.762 6.467 88.442 10.194 108.181.285 1.515-.907 2.892-2.444 2.784-9.648-.704-37.451 2.732-41.014 3.199-14.615 1.925-29.048 5.007-43.321 8.657-35.862 9.166-74.394 31.594-110.95 14.902-8.941-4.083-18.367 1.781-26.126 5.746-27.477 14.032-77.175 2.267-92.587 34.872-.733 1.555.397 3.36 2.113 3.366 23.892.137 80.941 1.294 116.327-6.555.226-.052.443-.069.675-.046 67.582 5.832 187.26 19.408 249.305-8.547a2.42 2.42 0 0 0 1.169-1.129c16.24-32.259 23.606-68.047 27.504-103.717 2.952-27.003 2.919-54.252 5.807-81.222 2.635-24.628 13.782-49.464 38.717-58.282 14.061-4.973 28.762-8.334 42.211-6.967 12.381 1.255 18.716 11.72 28.639 15.346 8.21 3 15.301 3.478 22.501 2.277 14.864-2.489 25.587-5.253 39.988-3.524 2.332.281 3.296 2.993 4.893 2.956 18.239-.399 15.498 3.662 26.843-29.081 12.122-34.997-34.596-61.073-61.601-69.132Z" stroke="#000" stroke-width="5" stroke-miterlimit="10"/><path d="M651.187 358.611c-24.666 6.916-35.415-25.076-35.415-25.076l-20.774 13.495-.156 30.331s15.27-.826 20.146 6.999" fill="#fff"/><path d="M651.187 358.611c-24.666 6.916-35.415-25.076-35.415-25.076l-20.774 13.495-.156 30.331s15.27-.826 20.146 6.999" stroke="#000" stroke-width="5" stroke-miterlimit="10"/><path d="M651.187 358.611c-24.666 6.916-35.415-25.076-35.415-25.076l-20.774 13.495-.156 30.331s15.27-.826 20.146 6.999M356.926 323.026s24.023 49.911 68.237 61.332M196.093 579.654s-4.767 30.252 0 44.753" stroke="#000" stroke-width="5" stroke-miterlimit="10"/><path d="M657.179 359.806c10.796 2.424 14.745 12.192 24.911 18.887 16.139 10.637 14.488 40.512-.897 55.677-20.313 20.018-96.67-47.22-86.905-60.63 5.785-7.937 23.838-15.615 44.545-14.335 6.658.409 18.346.401 18.346.401Z" fill="#fff" stroke="#000" stroke-width="5" stroke-miterlimit="10"/><path d="M657.179 359.806c10.796 2.424 14.745 12.192 24.911 18.887 16.139 10.637 14.488 40.512-.897 55.677-20.313 20.018-96.67-47.22-86.905-60.63 5.785-7.937 23.838-15.615 44.545-14.335 6.658.409 18.346.401 18.346.401Z" stroke="#000" stroke-width="5" stroke-miterlimit="10"/><path d="M664.402 435.236c-12.982-12.255-28.101-43.669-8.715-56.336 21.787-14.244 3.728-16.748-1.112-18.466-4.843-1.724-19.702 1.33-19.019-1.438.69-2.767 33.56-19.868 54.923-5.119 21.367 14.754 27.088 28.398 24 43.614-3.093 15.218-20.694 36.67-35.729 41.011-15.03 4.342-14.348-3.266-14.348-3.266Z" fill="#000" stroke="#000" stroke-width="5" stroke-miterlimit="10"/><path d="M706.062 396.516c6.495-10.475 28.905-29.959 42.889.201 11.484 24.773 19.324 15.733 36.715 30.589 13.979 11.939 5.447 36.845-31.873 41.722-33.966 4.438-30.743-16.468-32.095-38.905-1.349-22.426-15.636-33.607-15.636-33.607Z" fill="#000" stroke="#000" stroke-width="5" stroke-miterlimit="10"/><path d="M554.707 387.631s17.275 78.581 18.64 116.56c1.818 50.529 10.192 89.752 15.786 111.294 1.403 5.414 6.526 6.366 11.57 7.924 4.01 1.243 7.366 1.461 9.635 1.489l74.677.29c1.266.016 1.71-1.678.595-2.273-10.111-5.398-29.104-8.855-37.114-11.839-6.365-2.375-11.565-3.891-18.272-4.99-1.553-.258-4.491-.671-6.057-.751l-.057-.005c-4.996-.27-10.76-4.24-12.771-8.823-2.698-6.164-1.427-9.939-1.34-16.658.111-7.864.211-15.733.315-23.599l.642-48.29c.059-4.342.114-8.684.174-13.026l-8.872-160.796c-3.861-16.343-16.706-23.27-28.707-21.428-12.002 1.851-43.52 3.931-34.247 41.487 7.305 29.586 15.403 33.434 15.403 33.434Z" fill="#fff" stroke="#000" stroke-width="5" stroke-miterlimit="10"/><path d="M554.707 387.631s17.275 78.581 18.64 116.56c1.818 50.529 10.192 89.752 15.786 111.294 1.403 5.414 6.526 6.366 11.57 7.924 4.01 1.243 7.366 1.461 9.635 1.489l74.677.29c1.266.016 1.71-1.678.595-2.273-10.111-5.398-29.104-8.855-37.114-11.839-6.365-2.375-11.565-3.891-18.272-4.99-1.553-.258-4.491-.671-6.057-.751l-.057-.005c-4.996-.27-10.76-4.24-12.771-8.823-2.698-6.164-1.427-9.939-1.34-16.658.111-7.864.211-15.733.315-23.599l.642-48.29c.059-4.342.114-8.684.174-13.026l-8.872-160.796c-3.861-16.343-16.706-23.27-28.707-21.428-12.002 1.851-43.52 3.931-34.247 41.487 7.305 29.586 15.403 33.434 15.403 33.434Z" stroke="#000" stroke-width="5" stroke-miterlimit="10"/></svg>

<svg width="800" height="900" viewBox="0 0 800 900" fill="none" xmlns="http://www.w3.org/2000/svg">
<path d="M553.318 277.599C526.419 269.573 497.753 271.087 470.497 276.425C420.25 286.259 350.903 308.83 327.547 359.82C315.687 385.706 313.639 415.42 314.475 443.515C315.208 468.277 320.942 531.957 324.669 551.696C324.954 553.211 323.762 554.588 322.225 554.48C312.577 553.776 284.774 557.212 281.211 557.679C266.596 559.604 252.163 562.686 237.89 566.336C202.028 575.502 163.496 597.93 126.94 581.238C117.999 577.155 108.573 583.019 100.814 586.984C73.3365 601.016 23.6393 589.251 8.22739 621.856C7.49397 623.411 8.62386 625.216 10.34 625.222C34.2317 625.359 91.2811 626.516 126.667 618.667C126.893 618.615 127.11 618.598 127.342 618.621C194.924 624.453 314.602 638.029 376.647 610.074C377.157 609.845 377.567 609.443 377.816 608.945C394.056 576.686 401.422 540.898 405.32 505.228C408.272 478.225 408.239 450.976 411.127 424.006C413.762 399.378 424.909 374.542 449.844 365.724C463.905 360.751 478.606 357.39 492.055 358.757C504.436 360.012 510.771 370.477 520.694 374.103C528.904 377.103 535.995 377.581 543.195 376.38C558.059 373.891 568.782 371.127 583.183 372.856C585.515 373.137 586.479 375.849 588.076 375.812C606.315 375.413 603.574 379.474 614.919 346.731C627.041 311.734 580.323 285.658 553.318 277.599Z" fill="white" stroke="black" stroke-width="5" stroke-miterlimit="10"/>
<path d="M553.318 277.599C526.419 269.573 497.753 271.087 470.497 276.425C420.25 286.259 350.903 308.83 327.547 359.82C315.687 385.706 313.639 415.42 314.475 443.515C315.208 468.277 320.942 531.957 324.669 551.696C324.954 553.211 323.762 554.588 322.225 554.48C312.577 553.776 284.774 557.212 281.211 557.679C266.596 559.604 252.163 562.686 237.89 566.336C202.028 575.502 163.496 597.93 126.94 581.238C117.999 577.155 108.573 583.019 100.814 586.984C73.3365 601.016 23.6393 589.251 8.22739 621.856C7.49397 623.411 8.62386 625.216 10.34 625.222C34.2317 625.359 91.2811 626.516 126.667 618.667C126.893 618.615 127.11 618.598 127.342 618.621C194.924 624.453 314.602 638.029 376.647 610.074C377.157 609.845 377.567 609.443 377.816 608.945C394.056 576.686 401.422 540.898 405.32 505.228C408.272 478.225 408.239 450.976 411.127 424.006C413.762 399.378 424.909 374.542 449.844 365.724C463.905 360.751 478.606 357.39 492.055 358.757C504.436 360.012 510.771 370.477 520.694 374.103C528.904 377.103 535.995 377.581 543.195 376.38C558.059 373.891 568.782 371.127 583.183 372.856C585.515 373.137 586.479 375.849 588.076 375.812C606.315 375.413 603.574 379.474 614.919 346.731C627.041 311.734 580.323 285.658 553.318 277.599Z" stroke="black" stroke-width="5" stroke-miterlimit="10"/>
<path d="M651.187 358.611C626.521 365.527 615.772 333.535 615.772 333.535L594.998 347.03L594.842 377.361C594.842 377.361 610.112 376.535 614.988 384.36" fill="white"/>
<path d="M651.187 358.611C626.521 365.527 615.772 333.535 615.772 333.535L594.998 347.03L594.842 377.361C594.842 377.361 610.112 376.535 614.988 384.36" stroke="black" stroke-width="5" stroke-miterlimit="10"/>
<path d="M651.187 358.611C626.521 365.527 615.772 333.535 615.772 333.535L594.998 347.03L594.842 377.361C594.842 377.361 610.112 376.535 614.988 384.36" stroke="black" stroke-width="5" stroke-miterlimit="10"/>
<path d="M356.926 323.026C356.926 323.026 380.949 372.937 425.163 384.358" stroke="black" stroke-width="5" stroke-miterlimit="10"/>
<path d="M196.093 579.654C196.093 579.654 191.326 609.906 196.093 624.407" stroke="black" stroke-width="5" stroke-miterlimit="10"/>
<path d="M657.179 359.806C667.975 362.23 671.924 371.998 682.09 378.693C698.229 389.33 696.578 419.205 681.193 434.37C660.88 454.388 584.523 387.15 594.288 373.74C600.073 365.803 618.126 358.125 638.833 359.405C645.491 359.814 657.179 359.806 657.179 359.806Z" fill="white" stroke="black" stroke-width="5" stroke-miterlimit="10"/>
<path d="M657.179 359.806C667.975 362.23 671.924 371.998 682.09 378.693C698.229 389.33 696.578 419.205 681.193 434.37C660.88 454.388 584.523 387.15 594.288 373.74C600.073 365.803 618.126 358.125 638.833 359.405C645.491 359.814 657.179 359.806 657.179 359.806Z" stroke="black" stroke-width="5" stroke-miterlimit="10"/>
<path d="M664.402 435.236C651.42 422.981 636.301 391.567 655.687 378.9C677.474 364.656 659.415 362.152 654.575 360.434C649.732 358.71 634.873 361.764 635.556 358.996C636.246 356.229 669.116 339.128 690.479 353.877C711.846 368.631 717.567 382.275 714.479 397.491C711.386 412.709 693.785 434.161 678.75 438.502C663.72 442.844 664.402 435.236 664.402 435.236Z" fill="black" stroke="black" stroke-width="5" stroke-miterlimit="10"/>
<path d="M706.062 396.516C712.557 386.041 734.967 366.557 748.951 396.717C760.435 421.49 768.275 412.45 785.666 427.306C799.645 439.245 791.113 464.151 753.793 469.028C719.827 473.466 723.05 452.56 721.698 430.123C720.349 407.697 706.062 396.516 706.062 396.516Z" fill="black" stroke="black" stroke-width="5" stroke-miterlimit="10"/>
<path d="M554.707 387.631C554.707 387.631 571.982 466.212 573.347 504.191C575.165 554.72 583.539 593.943 589.133 615.485C590.536 620.899 595.659 621.851 600.703 623.409C604.713 624.652 608.069 624.87 610.338 624.898L685.015 625.188C686.281 625.204 686.725 623.51 685.61 622.915C675.499 617.517 656.506 614.06 648.496 611.076C642.131 608.701 636.931 607.185 630.224 606.086C628.671 605.828 625.733 605.415 624.167 605.335L624.11 605.33C619.114 605.06 613.35 601.09 611.339 596.507C608.641 590.343 609.912 586.568 609.999 579.849C610.11 571.985 610.21 564.116 610.314 556.25C610.528 540.153 610.743 524.054 610.956 507.96C611.015 503.618 611.07 499.276 611.13 494.934L602.258 334.138C598.397 317.795 585.552 310.868 573.551 312.71C561.549 314.561 530.031 316.641 539.304 354.197C546.609 383.783 554.707 387.631 554.707 387.631Z" fill="white" stroke="black" stroke-width="5" stroke-miterlimit="10"/>
<path d="M554.707 387.631C554.707 387.631 571.982 466.212 573.347 504.191C575.165 554.72 583.539 593.943 589.133 615.485C590.536 620.899 595.659 621.851 600.703 623.409C604.713 624.652 608.069 624.87 610.338 624.898L685.015 625.188C686.281 625.204 686.725 623.51 685.61 622.915C675.499 617.517 656.506 614.06 648.496 611.076C642.131 608.701 636.931 607.185 630.224 606.086C628.671 605.828 625.733 605.415 624.167 605.335L624.11 605.33C619.114 605.06 613.35 601.09 611.339 596.507C608.641 590.343 609.912 586.568 609.999 579.849C610.11 571.985 610.21 564.116 610.314 556.25C610.528 540.153 610.743 524.054 610.956 507.96C611.015 503.618 611.07 499.276 611.13 494.934L602.258 334.138C598.397 317.795 585.552 310.868 573.551 312.71C561.549 314.561 530.031 316.641 539.304 354.197C546.609 383.783 554.707 387.631 554.707 387.631Z" stroke="black" stroke-width="5" stroke-miterlimit="10"/>
</svg>
